dist/img/advantages/a3.svg

<svg width="55" height="55" viewBox="0 0 55 55" fill="none" xmlns="http://www.w3.org/2000/svg">
<path d="M49.3566 31.9521C49.3566 31.5072 48.996 31.1465 48.5509 31.1465H41.3315C40.8865 31.1465 40.5259 31.5072 40.5259 31.9521V36.5417C40.5259 36.9867 40.8865 37.3474 41.3315 37.3474H48.5509C48.996 37.3474 49.3566 36.9867 49.3566 36.5417V31.9521ZM47.7453 35.7361H42.1372V32.7578H47.7453V35.7361Z" fill="#00817C"/>
<path d="M48.5509 40.7954H41.3315C40.8865 40.7954 40.5259 41.1561 40.5259 41.6011V46.1876C40.5259 46.6325 40.8865 46.9932 41.3315 46.9932H48.5509C48.996 46.9932 49.3566 46.6325 49.3566 46.1876V41.6011C49.3566 41.1561 48.9959 40.7954 48.5509 40.7954ZM47.7453 45.3819H42.1372V42.4067H47.7453V45.3819Z" fill="#00817C"/>
<path d="M55 15.7344C55 14.1906 53.7421 12.9347 52.1959 12.9347H38.4769V9.11816C39.9946 9.08507 41.2191 7.84306 41.2191 6.32014C41.2191 4.77638 39.9612 3.52051 38.4149 3.52051H16.282C14.7358 3.52051 13.4779 4.77638 13.4779 6.32014C13.4779 7.8639 14.7358 9.11977 16.282 9.11977H16.5231V12.9347H2.80414C1.25791 12.9347 0 14.1906 0 15.7344C0 16.992 0.834776 18.0582 1.98011 18.4105V50.6737C1.98011 51.1186 2.34072 51.4793 2.78577 51.4793H52.2143C52.6594 51.4793 53.02 51.1186 53.02 50.6737V35.5552C53.02 35.1103 52.6594 34.7496 52.2143 34.7496C51.7693 34.7496 51.4087 35.1103 51.4087 35.5552V49.8679H38.4769V18.534H51.4087V31.8237C51.4087 32.2686 51.7693 32.6294 52.2143 32.6294C52.6594 32.6294 53.02 32.2686 53.02 31.8237V18.4105C54.1652 18.0582 55 16.9919 55 15.7344ZM15.0893 6.32014C15.0893 5.66486 15.6244 5.13184 16.2821 5.13184H38.415C39.0727 5.13184 39.6078 5.66486 39.6078 6.32014C39.6078 6.97541 39.0728 7.50844 38.415 7.50844H16.282C15.6244 7.50844 15.0893 6.97541 15.0893 6.32014ZM1.61133 15.7344C1.61133 15.0791 2.1464 14.5461 2.80414 14.5461H16.5232V16.9228H2.80414C2.1464 16.9227 1.61133 16.3896 1.61133 15.7344ZM3.59144 18.534H16.5232V49.8679H3.59144V18.534ZM18.1344 9.11977H36.8655V49.868H34.2136V38.4011C34.2136 37.9562 33.853 37.5955 33.408 37.5955H21.5919C21.1469 37.5955 20.7862 37.9562 20.7862 38.4011V49.8679H18.1344V9.11977ZM28.3041 39.2068H32.6024V49.8679H28.3041V39.2068ZM26.6927 49.868H22.3976V39.2069H26.6927V49.868ZM52.1959 16.9227H38.4769V14.546H52.196C52.8536 14.546 53.3888 15.079 53.3888 15.7343C53.3887 16.3896 52.8536 16.9227 52.1959 16.9227Z" fill="#00817C"/>
<path d="M13.6655 21.5H6.4491C6.00405 21.5 5.64343 21.8607 5.64343 22.3057V26.8953C5.64343 27.3402 6.00405 27.7009 6.4491 27.7009H13.6655C14.1105 27.7009 14.4711 27.3402 14.4711 26.8953V22.3057C14.4711 21.8607 14.1104 21.5 13.6655 21.5ZM12.8598 26.0896H7.25476V23.1113H12.8598V26.0896Z" fill="#00817C"/>
<path d="M13.6655 31.1465H6.4491C6.00405 31.1465 5.64343 31.5072 5.64343 31.9521V36.5417C5.64343 36.9867 6.00405 37.3474 6.4491 37.3474H13.6655C14.1105 37.3474 14.4711 36.9867 14.4711 36.5417V31.9521C14.4711 31.5072 14.1104 31.1465 13.6655 31.1465ZM12.8598 35.7361H7.25476V32.7578H12.8598V35.7361Z" fill="#00817C"/>
<path d="M13.6655 40.7954H6.4491C6.00405 40.7954 5.64343 41.1561 5.64343 41.6011V46.1876C5.64343 46.6325 6.00405 46.9932 6.4491 46.9932H13.6655C14.1105 46.9932 14.4711 46.6325 14.4711 46.1876V41.6011C14.4711 41.1561 14.1104 40.7954 13.6655 40.7954ZM12.8598 45.3819H7.25476V42.4067H12.8598V45.3819Z" fill="#00817C"/>
<path d="M49.3566 22.3057C49.3566 21.8607 48.996 21.5 48.5509 21.5H41.3315C40.8865 21.5 40.5259 21.8607 40.5259 22.3057V26.8953C40.5259 27.3402 40.8865 27.7009 41.3315 27.7009H48.5509C48.996 27.7009 49.3566 27.3402 49.3566 26.8953V22.3057ZM47.7453 26.0896H42.1372V23.1113H47.7453V26.0896Z" fill="#00817C"/>
<path d="M22.4672 21.9236H24.7372V24.1899C24.7372 24.7924 25.2276 25.2825 25.8306 25.2825H29.1664C29.771 25.2825 30.2628 24.7924 30.2628 24.1899V21.9236H32.5328C33.1374 21.9236 33.6293 21.4334 33.6293 20.8309V17.5025C33.6293 16.8983 33.1374 16.4067 32.5328 16.4067H30.2628V14.1436C30.2628 13.5393 29.771 13.0479 29.1664 13.0479H25.8306C25.2277 13.0479 24.7372 13.5394 24.7372 14.1436V16.4067H22.4672C21.8626 16.4067 21.3707 16.8983 21.3707 17.5025V20.8309C21.3707 21.4334 21.8626 21.9236 22.4672 21.9236ZM22.9821 18.018H25.5429C25.9879 18.018 26.3485 17.6573 26.3485 17.2124V14.6591H28.6514V17.2124C28.6514 17.6573 29.0121 18.018 29.4571 18.018H32.0179V20.3123H29.4571C29.0121 20.3123 28.6514 20.673 28.6514 21.1179V23.6712H26.3485V21.1179C26.3485 20.673 25.9879 20.3123 25.5429 20.3123H22.9821V18.018Z" fill="#00817C"/>
<path d="M30.9046 27.8301H24.0953C23.6502 27.8301 23.2896 28.1908 23.2896 28.6357C23.2896 29.0807 23.6502 29.4414 24.0953 29.4414H30.9046C31.3497 29.4414 31.7103 29.0807 31.7103 28.6357C31.7103 28.1908 31.3497 27.8301 30.9046 27.8301Z" fill="#00817C"/>
<path d="M30.9046 31.6353H24.0953C23.6502 31.6353 23.2896 31.996 23.2896 32.4409C23.2896 32.8859 23.6502 33.2466 24.0953 33.2466H30.9046C31.3497 33.2466 31.7103 32.8859 31.7103 32.4409C31.7103 31.996 31.3497 31.6353 30.9046 31.6353Z" fill="#00817C"/>
</svg>

<svg width="55" height="55" viewBox="0 0 55 55" fill="none" xmlns="http://www.w3.org/2000/svg"><path d="M49.357 31.952a.806.806 0 00-.806-.806h-7.22a.806.806 0 00-.805.806v4.59c0 .445.36.805.805.805h7.22c.445 0 .806-.36.806-.805v-4.59zm-1.612 3.784h-5.608v-2.978h5.608v2.978zm.805 5.059h-7.218a.806.806 0 00-.806.806v4.587c0 .444.36.805.805.805h7.22c.445 0 .806-.36.806-.805V41.6a.806.806 0 00-.806-.806zm-.805 4.587h-5.608v-2.975h5.608v2.975z" fill="#00817C"/><path d="M55 15.734c0-1.543-1.258-2.8-2.804-2.8h-13.72V9.119A2.804 2.804 0 0041.22 6.32c0-1.544-1.258-2.8-2.804-2.8H16.282a2.805 2.805 0 00-2.804 2.8c0 1.544 1.258 2.8 2.804 2.8h.241v3.815H2.804A2.805 2.805 0 000 15.735c0 1.257.835 2.323 1.98 2.675v32.264c0 .445.36.805.806.805h49.428c.445 0 .806-.36.806-.805V35.555a.806.806 0 10-1.611 0v14.313H38.477V18.534h12.932v13.29a.806.806 0 101.611 0V18.41A2.805 2.805 0 0055 15.734zM15.09 6.32a1.19 1.19 0 011.192-1.188h22.133c.658 0 1.193.533 1.193 1.188 0 .655-.535 1.188-1.193 1.188H16.282a1.192 1.192 0 01-1.193-1.188zM1.61 15.734c0-.655.535-1.188 1.193-1.188h13.72v2.377H2.803a1.192 1.192 0 01-1.193-1.189zm1.98 2.8h12.932v31.334H3.591V18.534zM18.134 9.12h18.731v40.748h-2.651V38.401a.806.806 0 00-.806-.806H21.592a.806.806 0 00-.806.806v11.467h-2.652V9.12zm10.17 30.087h4.298v10.66h-4.298v-10.66zm-1.611 10.661h-4.295V39.207h4.295v10.661zm25.503-32.945h-13.72v-2.377h13.72c.658 0 1.193.533 1.193 1.188 0 .656-.535 1.189-1.193 1.189z" fill="#00817C"/><path d="M13.665 21.5H6.45a.806.806 0 00-.806.806v4.59c0 .444.361.805.806.805h7.216c.446 0 .806-.36.806-.806v-4.59a.806.806 0 00-.806-.805zm-.805 4.59H7.255v-2.98h5.605v2.979zm.805 5.056H6.45a.806.806 0 00-.806.806v4.59c0 .445.361.805.806.805h7.216c.446 0 .806-.36.806-.805v-4.59a.806.806 0 00-.806-.806zm-.805 4.59H7.255v-2.978h5.605v2.978zm.805 5.059H6.45a.806.806 0 00-.806.806v4.587c0 .444.361.805.806.805h7.216c.446 0 .806-.36.806-.805V41.6a.806.806 0 00-.806-.806zm-.805 4.587H7.255v-2.975h5.605v2.975zm36.497-23.076a.806.806 0 00-.806-.806h-7.22a.806.806 0 00-.805.806v4.59c0 .444.36.805.805.805h7.22c.445 0 .806-.36.806-.806v-4.59zm-1.612 3.784h-5.608v-2.98h5.608v2.979zm-25.278-4.166h2.27v2.266c0 .602.49 1.092 1.094 1.092h3.335c.605 0 1.097-.49 1.097-1.092v-2.266h2.27c.604 0 1.096-.49 1.096-1.093v-3.328c0-.605-.492-1.096-1.096-1.096h-2.27v-2.263c0-.605-.492-1.096-1.097-1.096h-3.335c-.603 0-1.094.491-1.094 1.096v2.263h-2.27c-.604 0-1.096.491-1.096 1.096v3.328c0 .602.492 1.093 1.096 1.093zm.515-3.906h2.56c.446 0 .806-.36.806-.806V14.66h2.303v2.553c0 .445.361.806.806.806h2.56v2.294h-2.56a.806.806 0 00-.806.806v2.553H26.35v-2.553a.806.806 0 00-.806-.806h-2.56v-2.294zm7.923 9.812h-6.81a.806.806 0 100 1.611h6.81a.806.806 0 100-1.61zm0 3.805h-6.81a.806.806 0 100 1.612h6.81a.806.806 0 100-1.612z" fill="#00817C"/></svg>
